X: 72
T:My Nanny O. JMP.072
M:C|
L:1/8
Q:160
C:"77"
S:John Miller MS. Perth, 1799.(for the fife)
R:Scots Measure
O:Scotland
A:Perth
H:1799
Z:vmp.C. Graebe
K:G major
GA | B2E2"tr"B2 AB | G2FGE2DE | GFGA BABd | e2 A>B A2 GA |!
B2 d2 cBAG | A2 B2 g3 f | efed BABd | e2 EF E2 :|!
|:Bc | (d3 d/)e dcBA | f2 d>e d2 gf | edef gfga | b2 e>f e2 dc |!
B2 g2 dBAG | A2B2 g3 f | efed BABd | e2 EF E2 :|]
